X:104
T: Verschlafener Jaeger
N: Q0152U
O: Mitteleuropa, Schweiz, Graubuenden
N: Zugehoerigkeit zu dieser Balladengruppe ungeklaert.
R: Ballade, Verfuehrung, ??
M: 2/4
L: 1/16
K: G
G2 | G3BB2B2 | A3Bc3
A | A3cc2c2 | B3cd3
d | B4B2B2 | A2B2c2
e2 | d2d2c2d2 | B4z2

